apps/mobile/assets/icons/phosphor/translate.svg

<svg
  height="32"
  viewBox="0 0 256 256"
  width="32"
  xmlns="http://www.w3.org/2000/svg"
>
  <path
    d="m247.15 212.42-56-112a8 8 0 0 0 -14.31 0l-21.71 43.43a88 88 0 0 1 -47.13-16.92 103.65 103.65 0 0 0 27.69-62.93h24.31a8 8 0 0 0 0-16h-56v-16a8 8 0 0 0 -16 0v16h-56a8 8 0 0 0 0 16h87.63a87.76 87.76 0 0 1 -23.63 52.35 87.74 87.74 0 0 1 -19-31 8 8 0 1 0 -15.08 5.34 103.63 103.63 0 0 0 22.08 36.31 87.55 87.55 0 0 1 -52 17 8 8 0 0 0 0 16 103.46 103.46 0 0 0 64-22.08 104.18 104.18 0 0 0 51.44 21.31l-26.6 53.19a8 8 0 0 0 14.31 7.16l13.79-27.58h70.11l13.79 27.58a8 8 0 0 0 7.16 4.42 8 8 0 0 0 7.15-11.58zm-90.21-36.42 27.06-54.11 27.05 54.11z"
  />
</svg>

<svg xmlns="http://www.w3.org/2000/svg" width="32" height="32" fill="#000000" viewBox="0 0 256 256"><path d="M247.15,212.42l-56-112a8,8,0,0,0-14.31,0l-21.71,43.43A88,88,0,0,1,108,126.93,103.65,103.65,0,0,0,135.69,64H160a8,8,0,0,0,0-16H104V32a8,8,0,0,0-16,0V48H32a8,8,0,0,0,0,16h87.63A87.76,87.76,0,0,1,96,116.35a87.74,87.74,0,0,1-19-31,8,8,0,1,0-15.08,5.34A103.63,103.63,0,0,0,84,127a87.55,87.55,0,0,1-52,17,8,8,0,0,0,0,16,103.46,103.46,0,0,0,64-22.08,104.18,104.18,0,0,0,51.44,21.31l-26.6,53.19a8,8,0,0,0,14.31,7.16L148.94,192h70.11l13.79,27.58A8,8,0,0,0,240,224a8,8,0,0,0,7.15-11.58ZM156.94,176,184,121.89,211.05,176Z"></path></svg>
